X: 1674
T: The Sea Captain
M:4/4
L:1/8
B:O'Neill's 1674
N:"collected by F.O'Neill"
K:D
(3ABc \
| d2e-cABce | dcAFDEFG | ABGAFGAB | c2AAA2 (3ABc |
| d2 e-cABce | dcAFDEFG | ABGAFDEC | D2DDD2 :|
|: A2 \
| (3ABc defefg | fdecdcAG | A2A-GFGAB | c2AAA3g |
| fdecd2c-A | BGAFDEFG | ABGA FDEC | D2DDD2 :|


